X: 28274
T: Mrs. MacDougall
R: jig
M: 6/8
K: Amixolydian
|:e|A>AA ABc|ece a2f|ecA ABc|ecA G>AB|
A>AA ABc|ece a2e|c2e fdB|A3 A2:|
|:f|g2g fed|efg a2f|ecA ABc|ecA G2f|
g2g fed|efg a2e|c2e fdB|A3 A2:|
|:e|A>AA cBA|c2e fdB|A>AA ABc|ecA G>AB|
A>AA cBA|c2e fdB|efd c<dB|A3 A2:|
|:e|c<Aa ece|gfg aec|efg aec|ABc BAG|
c<Aa ece|gfg aec|fed c<dB|A3 A2:|

